**kern	**kern	**dynam
*part1	*part1	*part1
*staff2	*staff1	*
*I"Piano	*	*
*clefF4	*clefG2	*
*k[f#c#]	*k[f#c#]	*
=1	=1	=1
(4BB	(4d [4g	.
4C#)	4e) 4g]	.
(4GG	4B 4g	.
=	=	=
4AA	(4c# 4g	.
4BB	4d 4f#	.
4C#) 4G	4A) 4e	.
=	=	=
*	*^	*
!	!LO:TX:a:i:t=legato	!	!
4D	4f#	2A	.
4F#	4d	.	.
*	*v	*v	*
4G	4B 4d 4e	.
=	=	=
2A	4d 4f#	.
*	*^	*
.	8aL	4f#	.
.	8bJ	.	.
4A#X	4cc#	4e 4g	.
*	*v	*v	*
=	=	=
2B	2d 2f# 2dd	.
4c#	4e 4a	.
=	=	=
*	*^	*
2d	2a	4g	<
.	.	4f#	.
*	*v	*v	*
4G 4B	4g 4dd	.
=	=	=
2.Cn [2.G	2.e 2.ccn	[
=	=	=
*-	*-	*-
!!!system-decoration: {(s1,s2)}
